X:1
T:Welcome Song
T:Welcome Song
T:From March Romaine, by Charles François Gounod
T:Anonymous, 1889
T:Public Domain Courtesy of the Cyber Hymnal™
C:From March Romaine, by Charles François Gounod
Z:Public Domain
Z:Courtesy of the Cyber Hymnal™
%%score ( 1 2 ) ( 3 4 )
L:1/8
Q:1/4=105
M:4/4
K:F
V:1 treble 
V:2 treble 
V:3 bass 
V:4 bass 
V:1
 [A,CF]4 [F,A,C] z [A,CF]>[CEG] | [CFA]4 [A,CF] z [FA]>[GB] | [FAc]2 (z [FBd]3) [FAc] x | %3
w: 1.~Wel- come, day of|bless- ing! Peace and|joy * thy|
w: 2.~Ca- rol, men and|maid- ens! With the|an- * gels|
w: 3.~On- ward, bear His|stan- dard! Spread the|tri- * umphs|
w: 4.~Crown Him, then ye|peo- ple, Crown the|Sav- * ior,|
 ([F-A-c]4 [A,CFA]3) z | [CEGc]4 [CFA] z [CF]>[CFA] | [CEGc]4 [CFA] z [CF]>[CFA] | %6
w: mo- *|ments bring; Wel- come,|day of glad- ness!|
w: sound *|His praise. Ca- rol,|youth and child- ren,|
w: of *|His name! Up- ward,|lift the ban- ner,|
w: Prince *|of Peace! Crown Him,|O ye na- tions,|
 [CEG]2 [EGc]>[FGd] [EGc]2 [DFG=B]2 | [CEGc] z (C>C C) z C z ||"^Refrain" [DBd]4 [CAc]2 A>F | %9
w: Round the earth may thy|prais- es * * ring.||
w: In full cho- rus your|voic- es * * raise.||
w: And the forc- es of|e- vil * * shame.||
w: For His king- dom shall|still in- * * crease!||
 [CAc]2 [GB]2 [CFA]2 z2 | [DBd]3 [CAc] [DBd][CAc][CGB][CFA] | [DGB]2 [DFA]2 [EG]2 z2 | %12
w: |||
w: |||
w: |||
w: |||
 [F,F]3 [A,C] [B,D][CE][DF][EG] | [FA][EG][FA][GB] [Ac] z [DFBd] z | %14
w: ||
w: ||
w: ||
w: ||
 [A,CF]2 (z F/A/) [B,CEG]2- [B,CEG]>[A,CF] | [A,CF]6 z2 |] %16
w: ||
w: ||
w: ||
w: ||
V:2
 x8 | x8 | x2 ([FAc]2 c/e/) x3 | x8 | x8 | x8 | x8 | x8 || x6 A>F | x2 (C>C) x4 | x8 | x8 | x8 | %13
 x8 | x2 [A,CF]2 x4 | x8 |] %16
V:3
 [F,,C,F,]4 F,, z [A,,F,]>[C,G,] | [F,A,]4 F,, z [F,A,]>[F,G,B,] | %2
w: ||
 [F,A,C]2 [F,A,C]2 [F,B,D]3 [F,A,C] | ([F,-A,C]4 [F,,C,F,]3) z | [C,G,]4 [F,A,] z A,>[F,A,] | %5
w: ||* * This *|
 [C,G,]4 [F,A,] z A,>[F,A,] | G,2 G,>G, [G,,G,]2 [G,,G,]2 | [C,,C,] z (C,>C, C,) z C, z || %8
w: * * day *|is the prom- * *||
 [C,E,]4 [C,F,]2 A,>F, | [C,D,F,]2 [C,E,G,]2 [C,F,A,]2 z2 | %10
w: ise sealed, This day|is the love|
 [C,E,]3 [C,F,] [C,E,][C,F,][C,G,][C,A,] | [C,B,]2 [C,=B,]2 [C,C]2 z2 | %12
w: of God re- vealed; O- ver|Beth- le- hem,|
 [F,,,F,,]3 [A,,C,] [B,,D,][C,E,][D,F,][E,G,] | [F,A,][E,G,][F,A,][G,B,] [A,C] z [B,,,B,,] z | %14
w: the an- gel voic- es sing|The birth- day of our king.|
 [C,,C,]2 [C,,C,]2 [C,,C,]2- [C,,C,]>[F,,,F,,] | [F,,,F,,]6 z2 |] %16
w: ||
V:4
 x8 | x8 | x8 | x8 | x6 A,3/2 x/ | x6 A,3/2 x/ | G,2 G,>G, x4 | x8 || x6 A,>F, | x8 | x8 | x8 | %12
 x8 | x8 | x8 | x8 |] %16

